img/bxs_layer.svg

<svg width="60" height="60" viewBox="0 0 60 60" fill="none" xmlns="http://www.w3.org/2000/svg">
<g id="bxs:layer">
<path id="Vector" d="M53.7099 17.8125L31.1549 5.31251C30.7845 5.10765 30.3682 5.00018 29.9449 5.00018C29.5217 5.00018 29.1053 5.10765 28.7349 5.31251L6.28992 17.7125C5.9 17.9284 5.5749 18.2446 5.34827 18.6284C5.12165 19.0122 5.00175 19.4496 5.00098 19.8953C5.00022 20.341 5.11862 20.7788 5.34392 21.1634C5.56923 21.5479 5.89325 21.8653 6.28242 22.0825L28.8374 34.6825C29.2091 34.89 29.6277 34.9991 30.0533 34.9996C30.479 35 30.8978 34.8917 31.2699 34.685L53.7149 22.185C54.1048 21.9682 54.4296 21.651 54.6555 21.2663C54.8815 20.8816 55.0004 20.4434 54.9999 19.9973C54.9993 19.5512 54.8795 19.1133 54.6526 18.7291C54.4258 18.3449 54.1003 18.0285 53.7099 17.8125Z" fill="white"/>
<path id="Vector_2" d="M30.0002 39.64L8.71266 27.815L6.28516 32.185L28.7852 44.685C29.1565 44.8912 29.5742 44.9994 29.9989 44.9994C30.4236 44.9994 30.8413 44.8912 31.2127 44.685L53.7127 32.185L51.2852 27.815L30.0002 39.64Z" fill="white"/>
<path id="Vector_3" d="M30.0002 49.64L8.71266 37.815L6.28516 42.185L28.7852 54.685C29.1565 54.8912 29.5742 54.9994 29.9989 54.9994C30.4236 54.9994 30.8413 54.8912 31.2127 54.685L53.7127 42.185L51.2852 37.815L30.0002 49.64Z" fill="white"/>
</g>
</svg>

<svg xmlns="http://www.w3.org/2000/svg" width="60" height="60" fill="none"><g fill="#fff"><path d="m53.71 17.813-22.555-12.5a2.5 2.5 0 0 0-2.42 0L6.29 17.713a2.5 2.5 0 0 0-.008 4.37l22.555 12.6a2.5 2.5 0 0 0 2.433.002l22.445-12.5a2.5 2.5 0 0 0-.005-4.372"/><path d="M30 39.64 8.713 27.815l-2.428 4.37 22.5 12.5a2.5 2.5 0 0 0 2.428 0l22.5-12.5-2.428-4.37z"/><path d="M30 49.64 8.713 37.815l-2.428 4.37 22.5 12.5a2.5 2.5 0 0 0 2.428 0l22.5-12.5-2.428-4.37z"/></g></svg>
